dist/svg/widgets.svg

<!-- Generated by Trend Micro Style Portal -->
<svg version="1.1" xmlns="http://www.w3.org/2000/svg" width="16" height="16" viewBox="0 0 16 16">
  <title>widgets</title>
  <path fill="rgb(34,34,34)" d="M7 2v6c0 0.6-0.4 1-1 1h-4c-0.6 0-1-0.4-1-1v-6c0-0.6 0.4-1 1-1h4c0.6 0 1 0.4 1 1zM6 11h-4c-0.6 0-1 0.4-1 1v2c0 0.6 0.4 1 1 1h4c0.6 0 1-0.4 1-1v-2c0-0.6-0.4-1-1-1zM14 1h-4c-0.6 0-1 0.4-1 1v2c0 0.6 0.4 1 1 1h4c0.6 0 1-0.4 1-1v-2c0-0.6-0.4-1-1-1zM14 7h-4c-0.6 0-1 0.4-1 1v6c0 0.6 0.4 1 1 1h4c0.6 0 1-0.4 1-1v-6c0-0.6-0.4-1-1-1z"></path>
</svg>

<svg width="16" height="16" viewBox="0 0 16 16" fill="rgb(34, 34, 34)" xmlns="http://www.w3.org/2000/svg"><title>widgets</title><path d="M7 2V8C7 8.6 6.6 9 6 9H2C1.4 9 1 8.6 1 8V2C1 1.4 1.4 1 2 1H6C6.6 1 7 1.4 7 2ZM6 11H2C1.4 11 1 11.4 1 12V14C1 14.6 1.4 15 2 15H6C6.6 15 7 14.6 7 14V12C7 11.4 6.6 11 6 11ZM14 1H10C9.4 1 9 1.4 9 2V4C9 4.6 9.4 5 10 5H14C14.6 5 15 4.6 15 4V2C15 1.4 14.6 1 14 1ZM14 7H10C9.4 7 9 7.4 9 8V14C9 14.6 9.4 15 10 15H14C14.6 15 15 14.6 15 14V8C15 7.4 14.6 7 14 7Z" fill="rgb(34, 34, 34)" fill-opacity="1.00"/></svg>
